icons/Filter.svg

<svg width="24" height="24" viewBox="0 0 24 24" fill="none" xmlns="http://www.w3.org/2000/svg">
<g id="Filter">
<path id="Vector" d="M9.75 12.24L6.75 8.81C6.58922 8.6277 6.50035 8.39307 6.5 8.15V6C6.5 5.73478 6.60536 5.48043 6.79289 5.29289C6.98043 5.10536 7.23478 5 7.5 5H16.5C16.7652 5 17.0196 5.10536 17.2071 5.29289C17.3946 5.48043 17.5 5.73478 17.5 6V8.15C17.4997 8.39307 17.4108 8.6277 17.25 8.81L14.25 12.24C14.0892 12.4223 14.0003 12.6569 14 12.9V16.47C14 16.6252 13.9639 16.7784 13.8944 16.9172C13.825 17.0561 13.7242 17.1769 13.6 17.27L11.6 18.77C11.4535 18.88 11.2795 18.9477 11.0972 18.9656C10.9148 18.9834 10.731 18.9509 10.5659 18.8714C10.4008 18.792 10.2607 18.6687 10.1609 18.515C10.0611 18.3613 10.0054 18.1832 10 18V12.9C9.99965 12.6569 9.91078 12.4223 9.75 12.24Z" stroke="#00153F" stroke-width="1.5" stroke-linecap="round" stroke-linejoin="round"/>
</g>
</svg>

<svg xmlns="http://www.w3.org/2000/svg" fill="none" viewBox="0 0 24 24"><path stroke="currentColor" stroke-linecap="round" stroke-linejoin="round" stroke-width="1.5" d="m9.75 12.24-3-3.43a1 1 0 0 1-.25-.66V6a1 1 0 0 1 1-1h9a1 1 0 0 1 1 1v2.15a1 1 0 0 1-.25.66l-3 3.43a1 1 0 0 0-.25.66v3.57a.999.999 0 0 1-.4.8l-2 1.5A1 1 0 0 1 10 18v-5.1a1 1 0 0 0-.25-.66Z"/></svg>
